X: 1
T: O Maria, Mari
C: Eduardo di Capua (1865-1917)
R: waltz
Z: John Chambers <jc:trillian.mit.edu>
W: I.
W: Arápete fenesta!
W: Famme affacciá a Maria,
W: ca stóngo 'mmiez'â via
W: speruto d''a vedé.
W:
W: Nun trovo n'ora 'e pace:
W: 'a notte 'a faccio juorno,
W: sempe pe' stá ccá attuorno,
W: speranno 'e ce parlá!
W:
W: Oje Marí', oje Marí', quanta suonno ca perdo pe' te!
W: Famme addurmí, abbracciato nu poco cu te!
W: Oje Marí', oje Marí'!  Quanta suonno ca perdo pe' te!
W: Famme addurmí,  oje Marí', oje Marí'!
W:
W: II.
W: 'Mmiez'a stu ciardeniello,
W: ce ride 'a malvarosa.
W: Nu lietto 'e fronne 'e rosa
W: aggio fatto pe' te.
W:
W: Viene che 'a notte è doce,
W: 'o cielo ch'è nu manto.
W: Tu duorme e io te canto
W: 'a nonna a fianco a te.
W:
W: Oje Marí', oje Marí', ...
W:
W: III.
W: Pare che giá s'arape
W: na sénga 'e fenestella.
W: Maria cu 'a manella,
W: nu segno a me mme fa!
W:
W: Sòna chitarra mia!
W: Maria s'è scetata!
W: Na scicca serenata,
W: facímmole sentí:
W:
W: Oje Marí', oje Marí', ...
M: 6/8
L: 1/8
K: Am
"^Intro"[|]B/c/de \
| "Am"ce2 "E7"B/c/de \
| "Am"ce2 "E7"^g/a/bc' \
| "Am"ae2 "E7"B/c/de \
| "Am"A3 z3 \
|  z3 z3 ||
|: "Am"c'3- "E7"c'b/a/^g/b/ \
|  "Am"a/^g/a2- a2z \
|  "Dm"a3- aa/^g/a/f/ \
|  "Am"e/^d/e2- e2z \
|  "E7"d3- dd/=c/d/e/ \
|  "Am"=c3 c2z |
|  "Dm"B3- "E7"BB/^A/B/c/ \
|1 "Am"A3 z3 \
:|2 [K:A] "A"A3 \
|: z[AC][BD] \
| "A"[A3-C3-] [AC][FD][GE] \
| [C3-E3-] [CE][CE][CE] \
| [FC][FC][GC] [GC][GC][EC] \
| "Bm"[F3-D3-] [F3D3] |
| "E7"[G3E3] [A2E2][BE] \
| (3[G/E][A/F][G/E] [F2-D2-] [FD][FD][FD] \
| [GE][GE][GE] [GE][AF]>[BG] \
| "A"(3[F/D][G/E][F/D] [E2-C2-] [EC][AC][BD] \
| "A"[A3-C3-] [AC][FD][GE] \
| [C3-E3-] [CE][AC][BD] |
| "F7"[cE][cE][=B^D] [cE][dF][e=G] \
| "Bm"(3[c/E][d/F][c/E][B2-D2-] [BD][BD][cE] \
| "D"[d3F3] "Dm"[B2=F2D2][cFD] \
| "A"[A3-C3E3-] [ACE][FD][GE] \
| "E7"[E3-D3-] [ED][BGD][cGD] \
| "A"[A3C3E3] :|

